modules/hawcons-filled/icons/icon-57-document-download.svg

<?xml version="1.0" encoding="UTF-8" standalone="no"?>
<svg width="32px" height="32px" viewBox="0 0 32 32" version="1.1" xmlns="http://www.w3.org/2000/svg" xmlns:xlink="http://www.w3.org/1999/xlink" xmlns:sketch="http://www.bohemiancoding.com/sketch/ns">
    <!-- Generator: Sketch 3.0.3 (7891) - http://www.bohemiancoding.com/sketch -->
    <title>icon 57 document download</title>
    <desc>Created with Sketch.</desc>
    <defs></defs>
    <g id="Page-1" stroke="none" stroke-width="1" fill="none" fill-rule="evenodd" sketch:type="MSPage">
        <g id="icon-57-document-download" sketch:type="MSArtboardGroup" fill="#929292">
            <path d="M16,25.049999 L12.75,21.799999 L12,22.549999 L16.5,27.049999 L21,22.549999 L20.25,21.799999 L17,25.049999 L17,14 L16,14 L16,25.049999 L16,25.049999 Z M19,3 L9.0085302,3 C7.8992496,3 7,3.89833832 7,5.00732994 L7,27.9926701 C7,29.1012878 7.89092539,30 8.99742191,30 L24.0025781,30 C25.1057238,30 26,29.1090746 26,28.0025781 L26,11 L21.0059191,11 C19.8980806,11 19,10.1132936 19,9.00189865 L19,3 L19,3 Z M20,3 L20,8.99707067 C20,9.55097324 20.4509752,10 20.990778,10 L26,10 L20,3 L20,3 Z" id="document-download" sketch:type="MSShapeGroup"></path>
        </g>
    </g>
</svg>

<svg width="32" height="32" xmlns="http://www.w3.org/2000/svg"><path d="M16 25.05l-3.25-3.25-.75.75 4.5 4.5 4.5-4.5-.75-.75L17 25.05V14h-1v11.05zM19 3H9.009C7.899 3 7 3.898 7 5.007v22.986A2 2 0 0 0 8.997 30h15.006C25.106 30 26 29.11 26 28.003V11h-4.994A1.997 1.997 0 0 1 19 9.002V3zm1 0v5.997c0 .554.451 1.003.99 1.003H26l-6-7z" fill="#929292" fill-rule="evenodd"/></svg>
